assets/img/icons/duotone-icons/General/Cursor.svg

<?xml version="1.0" encoding="UTF-8"?>
<svg width="24px" height="24px" viewBox="0 0 24 24" version="1.1" xmlns="http://www.w3.org/2000/svg" xmlns:xlink="http://www.w3.org/1999/xlink">
    <!-- Generator: Sketch 52.2 (67145) - http://www.bohemiancoding.com/sketch -->
    <title>Stockholm-icons / General / Cursor</title>
    <desc>Created with Sketch.</desc>
    <g id="Stockholm-icons-/-General-/-Cursor" stroke="none" stroke-width="1" fill="none" fill-rule="evenodd">
        <rect id="bound" x="0" y="0" width="24" height="24"></rect>
        <path d="M14.2330207,14.3666907 L16.3111786,18.8233147 C16.4278814,19.0735846 16.3196038,19.3710749 16.0693338,19.4877777 L14.2567182,20.3330142 C14.0064483,20.449717 13.708958,20.3414394 13.5922552,20.0911694 L11.4668267,15.5331733 L8.85355339,18.1464466 C8.7597852,18.2402148 8.63260824,18.2928932 8.5,18.2928932 C8.22385763,18.2928932 8,18.0690356 8,17.7928932 L8,5.13027585 C8,5.00589283 8.04636089,4.88597544 8.13002996,4.79393946 C8.31578343,4.58961065 8.63200759,4.57455235 8.8363364,4.76030582 L18.1424309,13.2203917 C18.2368163,13.3061967 18.2948385,13.424831 18.3046218,13.5520135 C18.3258009,13.8273425 18.1197718,14.0677099 17.8444428,14.088889 L14.2330207,14.3666907 Z" id="Combined-Shape" fill="#335EEA"></path>
    </g>
</svg>

<svg width="24" height="24" viewBox="0 0 24 24" xmlns="http://www.w3.org/2000/svg"><g fill="none" fill-rule="evenodd"><path d="M0 0h24v24H0z"/><path d="M14.233 14.367l2.078 4.456a.5.5 0 01-.242.665l-1.812.845a.5.5 0 01-.665-.242l-2.125-4.558-2.613 2.613A.5.5 0 018 17.793V5.13a.5.5 0 01.836-.37l9.306 8.46a.5.5 0 01-.298.869l-3.611.278z" fill="#335EEA"/></g></svg>
